packages/webapp/public/images/template-logos/twitter-v2.svg

<svg width="62" height="62" viewBox="0 0 62 62" fill="none" xmlns="http://www.w3.org/2000/svg">
<mask id="mask0_496_1355" style="mask-type:luminance" maskUnits="userSpaceOnUse" x="9" y="13" width="44" height="37">
<path d="M53 13H9V49.1936H53V13Z" fill="white"/>
</mask>
<g mask="url(#mask0_496_1355)">
<path d="M48.3763 22.0987C48.4027 22.4838 48.4027 22.8687 48.4027 23.2574C48.4027 35.0964 39.3889 48.7507 22.9079 48.7507V48.7435C18.0402 48.7507 13.2731 47.3561 9.17505 44.7268C9.88244 44.8119 10.5946 44.8546 11.3068 44.8562C15.3425 44.8598 19.2607 43.5062 22.4356 41.0133C18.6013 40.9407 15.2394 38.4408 14.0644 34.7914C15.4073 35.0504 16.7909 34.9972 18.1097 34.637C13.9302 33.7925 10.9231 30.1198 10.9231 25.8548V25.7412C12.1677 26.4349 13.5632 26.82 14.99 26.8625C11.0526 24.2314 9.83929 18.9939 12.2156 14.8992C16.7645 20.4967 23.4763 23.8996 30.682 24.2597C29.9602 21.1477 30.9458 17.8868 33.2742 15.6994C36.883 12.307 42.559 12.4809 45.9496 16.0879C47.9567 15.6922 49.8799 14.9558 51.6399 13.9127C50.9709 15.9867 49.5705 17.7484 47.7025 18.868C49.477 18.6587 51.2131 18.1832 52.8461 17.4575C51.6447 19.2601 50.1292 20.8302 48.3763 22.0987Z" fill="#1D9BF0"/>
</g>
</svg>

<svg xmlns="http://www.w3.org/2000/svg" width="62" height="62" fill="none"><mask id="A" maskUnits="userSpaceOnUse" x="9" y="13" width="44" height="37"><path d="M53 13H9v36.194h44V13z" fill="#fff"/></mask><g mask="url(#A)"><path d="M48.376 22.099l.026 1.159c0 11.839-9.014 25.493-25.495 25.493v-.007a25.36 25.36 0 0 1-13.733-4.017c.707.085 1.42.128 2.132.129a17.99 17.99 0 0 0 11.129-3.843 8.97 8.97 0 0 1-8.371-6.222 8.93 8.93 0 0 0 4.045-.154 8.96 8.96 0 0 1-7.187-8.782v-.114a8.9 8.9 0 0 0 4.067 1.121c-3.937-2.631-5.151-7.869-2.774-11.963a25.43 25.43 0 0 0 18.466 9.36c-.722-3.112.264-6.373 2.592-8.56a8.97 8.97 0 0 1 12.675.389c2.007-.396 3.93-1.132 5.69-2.175a9 9 0 0 1-3.937 4.955 17.81 17.81 0 0 0 5.144-1.41 18.17 18.17 0 0 1-4.47 4.641z" fill="#1d9bf0"/></g></svg>
